people/facebook-outline.svg

<svg xmlns="http://www.w3.org/2000/svg" viewBox="0 0 16 16"><defs><style>.cls-1{fill:#231f20}</style></defs><title>facebook-outline</title><path class="cls-1" d="M12.353 4.987a1.3 1.3 0 0 0-1.023-.5h-1.324V4h.776a1.267 1.267 0 0 0 1.281-1.24l.008-1.5A1.265 1.265 0 0 0 10.789.007H9.345A3.864 3.864 0 0 0 7.437.5 3.138 3.138 0 0 0 5.89 3.406v1.083h-.777a1.3 1.3 0 0 0-.906.365 1.239 1.239 0 0 0-.374.885v1.5a1.266 1.266 0 0 0 1.284 1.237h.772v6.241a1.265 1.265 0 0 0 1.281 1.245h1.546A1.265 1.265 0 0 0 10 14.717V8.476h.969A1.286 1.286 0 0 0 12.2 7.57l.36-1.483a1.222 1.222 0 0 0-.207-1.1zm-1.387 2.244h-2.25v7.487H7.171V7.231H5.117v-1.5h2.054V3.406A2.026 2.026 0 0 1 9.345 1.25h1.446l-.007 1.5h-1.34c-.736 0-.719.608-.719.608v2.376h2.6z" id="Layer_1" data-name="Layer 1"/></svg>

<svg xmlns="http://www.w3.org/2000/svg" viewBox="0 0 16 16"><defs><style>.cls-1{fill:#231f20;}</style></defs><title>facebook-outline</title><g id="Layer_1" data-name="Layer 1"><path class="cls-1" d="M12.353,4.987a1.3,1.3,0,0,0-1.023-.5H10.006V4h.776a1.267,1.267,0,0,0,1.281-1.24l.008-1.5A1.265,1.265,0,0,0,10.789.007H9.483c-.032,0-.08,0-.138,0A3.864,3.864,0,0,0,7.437.5,3.138,3.138,0,0,0,5.89,3.406V4.489H5.113a1.3,1.3,0,0,0-.906.365,1.239,1.239,0,0,0-.374.885l0,1.5A1.266,1.266,0,0,0,5.117,8.476h.772v6.241a1.265,1.265,0,0,0,1.281,1.245H8.716A1.265,1.265,0,0,0,10,14.717V8.476h.969A1.286,1.286,0,0,0,12.2,7.57l.36-1.483A1.222,1.222,0,0,0,12.353,4.987ZM10.966,7.231H8.716v7.487H7.171V7.231H5.117l0-1.5H7.171V3.406A2.026,2.026,0,0,1,9.345,1.25c.061,0,.1,0,.1,0h1.346l-.007,1.5H9.444c-.736,0-.719.608-.719.608V5.734h2.6Z"/></g></svg>
